;FLAVOR:UltiGCode
;TIME:1479
;MATERIAL:2756
;MATERIAL2:0
;NOZZLE_DIAMETER:0.4
;MINX:71.749
;MINY:83.65
;MINZ:0.27
;MAXX:127.449
;MAXY:139.35
;MAXZ:20.07
;Generated with Cura_SteamEngine 4.13.1
M82 ;absolute extrusion mode
G0 F3000 Y50 ;avoid prime blob
G92 E0
G92 E0
G10
;LAYER_COUNT:100
;LAYER:0
M107
G0 F4500 X75.112 Y85.567 Z0.27
;TYPE:SKIRT
G11
G1 F1800 X75.295 Y85.426 E0.02183
G1 X76.095 Y84.884 E0.11315
G1 X76.117 Y84.871 E0.11556
G1 X77.123 Y84.37 E0.22177
G1 X77.339 Y84.281 E0.24384
G1 X78.197 Y83.984 E0.32964
G1 X78.97 Y83.805 E0.40463
G1 X79.616 Y83.712 E0.4663
G1 X80.605 Y83.65 E0.55995
G1 X118.605 Y83.651 E4.15095
G1 X119.611 Y83.715 E4.24621
G1 X119.844 Y83.745 E4.26841
G1 X121.001 Y83.984 E4.38005
G1 X121.888 Y84.293 E4.46881
G1 X122.104 Y84.383 E4.49093
G1 X122.868 Y84.751 E4.57106
G1 X123.545 Y85.165 E4.64605
G1 X124.086 Y85.567 E4.70975
G1 X124.862 Y86.251 E4.8075
G1 X125.532 Y87.013 E4.90339
G1 X125.673 Y87.196 E4.92522
G1 X126.215 Y87.996 E5.01653
G1 X126.228 Y88.018 E5.01895
G1 X126.729 Y89.024 E5.12515
G1 X126.818 Y89.24 E5.14723
G1 X127.115 Y90.098 E5.23303
G1 X127.294 Y90.871 E5.30801
G1 X127.386 Y91.507 E5.36874
G1 X127.449 Y92.504 E5.46314
G1 X127.448 Y130.506 E9.05433
G1 X127.386 Y131.491 E9.1476
G1 X127.357 Y131.721 E9.16951
G1 X127.142 Y132.808 E9.27422
G1 X127.136 Y132.83 E9.27637
G1 X126.805 Y133.792 E9.37251
G1 X126.714 Y134.01 E9.39484
G1 X126.348 Y134.769 E9.47447
G1 X125.934 Y135.446 E9.54946
G1 X125.542 Y135.975 E9.61168
G1 X124.864 Y136.747 E9.70877
G1 X124.848 Y136.763 E9.71091
G1 X124.086 Y137.433 E9.8068
G1 X123.903 Y137.574 E9.82863
G1 X123.251 Y138.026 E9.9036
G1 X122.846 Y138.261 E9.94785
G1 X122.104 Y138.617 E10.02562
G1 X121.888 Y138.707 E10.04773
G1 X121.001 Y139.016 E10.13649
G1 X120.228 Y139.195 E10.21148
G1 X119.582 Y139.288 E10.27315
G1 X118.593 Y139.35 E10.3668
G1 X80.593 Y139.349 E13.9578
G1 X79.587 Y139.285 E14.05306
G1 X79.354 Y139.255 E14.07526
G1 X78.197 Y139.016 E14.1869
G1 X77.31 Y138.707 E14.27566
G1 X77.094 Y138.617 E14.29778
G1 X76.33 Y138.249 E14.37791
G1 X75.653 Y137.835 E14.4529
G1 X75.112 Y137.433 E14.5166
G1 X74.35 Y136.763 E14.61248
G1 X74.334 Y136.747 E14.61462
G1 X73.656 Y135.975 E14.71172
G1 X73.517 Y135.794 E14.73328
G1 X72.983 Y135.004 E14.82339
G1 X72.97 Y134.982 E14.82581
G1 X72.471 Y133.981 E14.9315
G1 X72.381 Y133.763 E14.95379
G1 X72.039 Y132.743 E15.05546
G1 X71.843 Y131.736 E15.1524
G1 X71.812 Y131.493 E15.17555
G1 X71.749 Y130.496 E15.26996
G1 X71.75 Y92.494 E18.86115
G1 X71.812 Y91.509 E18.95441
G1 X71.841 Y91.279 E18.97632
G1 X72.056 Y90.192 E19.08103
G1 X72.062 Y90.17 E19.08319
G1 X72.393 Y89.208 E19.17933
G1 X72.484 Y88.99 E19.20165
G1 X72.85 Y88.231 E19.28128
G1 X73.264 Y87.554 E19.35627
G1 X73.656 Y87.025 E19.41849
G1 X74.334 Y86.253 E19.51558
G1 X74.35 Y86.237 E19.51772
G1 X75.112 Y85.567 E19.61361
G0 F4500 X75.325 Y85.844
G1 F1800 X75.508 Y85.703 E19.63544
G1 X76.273 Y85.186 E19.72269
G1 X76.295 Y85.173 E19.72511
G1 X77.256 Y84.693 E19.82662
G1 X77.472 Y84.604 E19.8487
G1 X78.293 Y84.321 E19.93076
G1 X79.415 Y84.091 E20.039
G1 X79.66 Y84.06 E20.06233
G1 X80.605 Y84 E20.15181
G1 X118.605 Y84.001 E23.74281
G1 X119.566 Y84.063 E23.83382
G1 X119.799 Y84.093 E23.85602
G1 X120.905 Y84.321 E23.96273
G1 X121.753 Y84.616 E24.04758
G1 X121.969 Y84.706 E24.06969
G1 X122.7 Y85.058 E24.14636
G1 X123.361 Y85.464 E24.21967
G1 X123.873 Y85.844 E24.27992
G1 X124.615 Y86.498 E24.37339
G1 X125.255 Y87.226 E24.46499
G1 X125.396 Y87.409 E24.48682
G1 X125.913 Y88.174 E24.57408
G1 X125.926 Y88.196 E24.57649
G1 X126.406 Y89.157 E24.67801
G1 X126.495 Y89.373 E24.70008
G1 X126.778 Y90.194 E24.78215
G1 X127.008 Y91.309 E24.88973
G1 X127.039 Y91.552 E24.91288
G1 X127.099 Y92.504 E25.00302
G1 X127.098 Y130.506 E28.59421
G1 X127.039 Y131.447 E28.68331
G1 X127.01 Y131.677 E28.70522
G1 X126.804 Y132.716 E28.80532
G1 X126.798 Y132.738 E28.80747
G1 X126.482 Y133.657 E28.89931
G1 X126.391 Y133.875 E28.92163
G1 X126.041 Y134.601 E28.99779
G1 X125.635 Y135.262 E29.0711
G1 X125.264 Y135.762 E29.12994
G1 X124.617 Y136.5 E29.22269
G1 X124.601 Y136.516 E29.22482
G1 X123.873 Y137.156 E29.31642
G1 X123.69 Y137.297 E29.33826
G1 X123.052 Y137.738 E29.41155
G1 X122.678 Y137.954 E29.45236
G1 X121.969 Y138.294 E29.52667
G1 X121.753 Y138.384 E29.54878
G1 X120.905 Y138.679 E29.63363
G1 X119.783 Y138.909 E29.74186
G1 X119.538 Y138.94 E29.7652
G1 X118.593 Y139 E29.85468
G1 X80.593 Y138.999 E33.44568
G1 X79.632 Y138.937 E33.53668
G1 X79.399 Y138.907 E33.55888
G1 X78.293 Y138.679 E33.6656
G1 X77.445 Y138.384 E33.75045
G1 X77.229 Y138.294 E33.77256
G1 X76.498 Y137.942 E33.84923
G1 X75.837 Y137.536 E33.92254
G1 X75.325 Y137.156 E33.98279
G1 X74.597 Y136.516 E34.07439
G1 X74.581 Y136.5 E34.07653
G1 X73.934 Y135.762 E34.16928
G1 X73.795 Y135.581 E34.19084
G1 X73.285 Y134.826 E34.27694
G1 X73.272 Y134.804 E34.27936
G1 X72.794 Y133.848 E34.38036
G1 X72.704 Y133.63 E34.40265
G1 X72.378 Y132.654 E34.49989
G1 X72.19 Y131.691 E34.59261
G1 X72.159 Y131.448 E34.61576
G1 X72.099 Y130.496 E34.70591
G1 X72.1 Y92.494 E38.29709
G1 X72.159 Y91.553 E38.38619
G1 X72.188 Y91.323 E38.4081
G1 X72.394 Y90.284 E38.5082
G1 X72.4 Y90.262 E38.51035
G1 X72.716 Y89.343 E38.60219
G1 X72.807 Y89.125 E38.62451
G1 X73.157 Y88.399 E38.70068
G1 X73.563 Y87.738 E38.77398
G1 X73.934 Y87.238 E38.83282
G1 X74.581 Y86.5 E38.92557
G1 X74.597 Y86.484 E38.9277
G1 X75.325 Y85.844 E39.01931
G0 F4500 X75.539 Y86.121
G1 F1800 X75.722 Y85.98 E39.04114
G1 X76.451 Y85.487 E39.1243
G1 X76.473 Y85.474 E39.12672
G1 X77.39 Y85.017 E39.22354
G1 X77.606 Y84.928 E39.24561
G1 X78.389 Y84.657 E39.32391
G1 X79.459 Y84.438 E39.42713
G1 X79.704 Y84.407 E39.45046
G1 X80.605 Y84.35 E39.53578
G1 X118.605 Y84.351 E43.12678
G1 X119.521 Y84.41 E43.21352
G1 X119.754 Y84.44 E43.23572
G1 X120.809 Y84.657 E43.3375
G1 X121.619 Y84.939 E43.41856
G1 X121.835 Y85.029 E43.44067
G1 X122.533 Y85.365 E43.51387
G1 X123.476 Y85.98 E43.62026
G1 X123.659 Y86.121 E43.6421
G1 X124.367 Y86.746 E43.73134
G1 X124.978 Y87.44 E43.81872
G1 X125.119 Y87.623 E43.84055
G1 X125.612 Y88.352 E43.92372
G1 X125.625 Y88.374 E43.92613
G1 X126.082 Y89.291 E44.02295
G1 X126.171 Y89.507 E44.04503
G1 X126.442 Y90.29 E44.12333
G1 X126.66 Y91.353 E44.22587
G1 X126.691 Y91.596 E44.24902
G1 X126.749 Y92.504 E44.335
G1 X126.748 Y130.506 E47.92619
G1 X126.692 Y131.404 E48.01122
G1 X126.663 Y131.634 E48.03313
G1 X126.466 Y132.624 E48.12851
G1 X126.46 Y132.646 E48.13067
G1 X126.159 Y133.522 E48.2182
G1 X126.068 Y133.74 E48.24053
G1 X125.734 Y134.434 E48.31331
G1 X125.126 Y135.368 E48.41863
G1 X124.987 Y135.549 E48.44019
G1 X124.369 Y136.252 E48.52865
G1 X123.659 Y136.879 E48.61816
G1 X123.476 Y137.02 E48.63999
G1 X122.533 Y137.635 E48.74638
G1 X121.835 Y137.971 E48.81958
G1 X121.619 Y138.061 E48.8417
G1 X120.809 Y138.343 E48.92275
G1 X119.739 Y138.562 E49.02596
G1 X119.494 Y138.593 E49.0493
G1 X118.593 Y138.65 E49.13461
G1 X80.593 Y138.649 E52.72561
G1 X79.677 Y138.59 E52.81235
G1 X79.444 Y138.56 E52.83455
G1 X78.389 Y138.343 E52.93634
G1 X77.579 Y138.061 E53.01739
G1 X77.363 Y137.971 E53.0395
G1 X76.665 Y137.635 E53.11271
G1 X75.722 Y137.02 E53.2191
G1 X75.539 Y136.879 E53.24093
G1 X74.829 Y136.252 E53.33044
G1 X74.211 Y135.549 E53.4189
G1 X74.072 Y135.368 E53.44046
G1 X73.586 Y134.648 E53.52255
G1 X73.573 Y134.626 E53.52497
G1 X73.118 Y133.714 E53.62128
G1 X73.028 Y133.496 E53.64357
G1 X72.716 Y132.565 E53.73636
G1 X72.538 Y131.647 E53.82472
G1 X72.507 Y131.404 E53.84787
G1 X72.449 Y130.496 E53.93385
G1 X72.45 Y92.494 E57.52504
G1 X72.506 Y91.596 E57.61007
G1 X72.535 Y91.366 E57.63198
G1 X72.732 Y90.376 E57.72737
G1 X72.738 Y90.354 E57.72952
G1 X73.039 Y89.478 E57.81705
G1 X73.13 Y89.26 E57.83938
G1 X73.464 Y88.566 E57.91216
G1 X74.072 Y87.632 E58.01748
G1 X74.211 Y87.451 E58.03904
G1 X74.829 Y86.748 E58.1275
G1 X75.539 Y86.121 E58.21701
G0 F4500 X75.752 Y86.399
G1 F1800 X75.935 Y86.258 E58.23884
G1 X76.629 Y85.788 E58.31805
G1 X76.651 Y85.775 E58.32046
G1 X77.523 Y85.341 E58.41251
G1 X77.739 Y85.252 E58.43459
G1 X78.485 Y84.994 E58.50918
G1 X79.503 Y84.785 E58.60739
G1 X79.748 Y84.754 E58.63072
G1 X80.605 Y84.7 E58.71187
G1 X118.605 Y84.701 E62.30287
G1 X119.477 Y84.757 E62.38545
G1 X119.71 Y84.787 E62.40765
G1 X120.713 Y84.994 E62.50443
G1 X121.484 Y85.262 E62.58156
G1 X121.7 Y85.352 E62.60367
G1 X122.365 Y85.672 E62.67341
G1 X123.263 Y86.258 E62.77475
G1 X123.446 Y86.399 E62.79658
G1 X124.12 Y86.993 E62.88148
G1 X124.7 Y87.653 E62.96451
G1 X124.841 Y87.836 E62.98634
G1 X125.311 Y88.53 E63.06555
G1 X125.324 Y88.552 E63.06796
G1 X125.758 Y89.424 E63.16001
G1 X125.847 Y89.64 E63.18208
G1 X126.105 Y90.386 E63.25668
G1 X126.313 Y91.397 E63.35422
G1 X126.344 Y91.64 E63.37737
G1 X126.399 Y92.504 E63.45918
G1 X126.398 Y130.506 E67.05037
G1 X126.344 Y131.36 E67.13123
G1 X126.315 Y131.59 E67.15314
G1 X126.129 Y132.532 E67.24388
G1 X126.123 Y132.554 E67.24603
G1 X125.836 Y133.387 E67.32929
G1 X125.745 Y133.605 E67.35162
G1 X125.427 Y134.266 E67.42093
G1 X124.848 Y135.155 E67.52119
G1 X124.709 Y135.336 E67.54276
G1 X124.122 Y136.005 E67.62686
G1 X124.106 Y136.021 E67.629
G1 X123.446 Y136.601 E67.71203
G1 X123.263 Y136.742 E67.73387
G1 X122.365 Y137.328 E67.8352
G1 X121.7 Y137.648 E67.90494
G1 X121.484 Y137.738 E67.92705
G1 X120.713 Y138.006 E68.00418
G1 X119.695 Y138.215 E68.10239
G1 X119.45 Y138.246 E68.12573
G1 X118.593 Y138.3 E68.20688
G1 X80.593 Y138.299 E71.79788
G1 X79.721 Y138.243 E71.88045
G1 X79.488 Y138.213 E71.90265
G1 X78.485 Y138.006 E71.99943
G1 X77.714 Y137.738 E72.07657
G1 X77.498 Y137.648 E72.09868
G1 X76.833 Y137.328 E72.16842
G1 X75.935 Y136.742 E72.26975
G1 X75.752 Y136.601 E72.29158
G1 X75.092 Y136.021 E72.37461
G1 X75.076 Y136.005 E72.37675
G1 X74.489 Y135.336 E72.46086
G1 X74.35 Y135.155 E72.48242
G1 X73.887 Y134.47 E72.56056
G1 X73.874 Y134.448 E72.56297
G1 X73.441 Y133.58 E72.65464
G1 X73.351 Y133.362 E72.67693
G1 X73.055 Y132.476 E72.7652
G1 X72.885 Y131.603 E72.84925
G1 X72.854 Y131.36 E72.8724
G1 X72.799 Y130.496 E72.95421
G1 X72.8 Y92.494 E76.5454
G1 X72.854 Y91.64 E76.62627
G1 X72.883 Y91.41 E76.64817
G1 X73.069 Y90.468 E76.73891
G1 X73.075 Y90.446 E76.74106
G1 X73.362 Y89.613 E76.82432
G1 X73.453 Y89.395 E76.84665
G1 X73.771 Y88.734 E76.91597
G1 X74.35 Y87.845 E77.01622
G1 X74.489 Y87.664 E77.03779
G1 X75.076 Y86.995 E77.1219
G1 X75.092 Y86.979 E77.12403
G1 X75.752 Y86.399 E77.20707
G0 F4500 X75.966 Y86.676
G1 F1800 X76.149 Y86.535 E77.2289
G1 X76.807 Y86.09 E77.30396
G1 X76.829 Y86.077 E77.30638
G1 X77.656 Y85.664 E77.39373
G1 X77.872 Y85.575 E77.41581
G1 X78.581 Y85.33 E77.4867
G1 X79.547 Y85.132 E77.57988
G1 X79.792 Y85.101 E77.60322
G1 X80.605 Y85.05 E77.6802
G1 X118.605 Y85.051 E81.2712
G1 X119.432 Y85.104 E81.34951
G1 X119.665 Y85.134 E81.37171
G1 X120.617 Y85.33 E81.46356
G1 X121.349 Y85.585 E81.53681
G1 X121.565 Y85.675 E81.55893
G1 X122.198 Y85.98 E81.62533
G1 X123.049 Y86.535 E81.72134
G1 X123.232 Y86.676 E81.74317
G1 X123.873 Y87.24 E81.82385
G1 X124.423 Y87.867 E81.90267
G1 X124.564 Y88.05 E81.9245
G1 X125.009 Y88.708 E81.99957
G1 X125.022 Y88.73 E82.00198
G1 X125.435 Y89.557 E82.08934
G1 X125.524 Y89.773 E82.11141
G1 X125.769 Y90.482 E82.1823
G1 X125.966 Y91.442 E82.27491
G1 X125.997 Y91.685 E82.29806
G1 X126.049 Y92.504 E82.37561
G1 X126.048 Y130.506 E85.9668
G1 X125.997 Y131.316 E86.0435
G1 X125.968 Y131.546 E86.06541
G1 X125.791 Y132.44 E86.15153
G1 X125.785 Y132.462 E86.15368
G1 X125.513 Y133.252 E86.23264
G1 X125.422 Y133.47 E86.25496
G1 X125.119 Y134.099 E86.32094
G1 X124.57 Y134.942 E86.41601
G1 X124.431 Y135.123 E86.43757
G1 X123.875 Y135.758 E86.51733
G1 X123.859 Y135.774 E86.51947
G1 X123.232 Y136.324 E86.59829
G1 X123.049 Y136.465 E86.62012
G1 X122.198 Y137.02 E86.71613
G1 X121.565 Y137.325 E86.78253
G1 X121.349 Y137.415 E86.80464
G1 X120.617 Y137.67 E86.8779
G1 X119.651 Y137.868 E86.97108
G1 X119.406 Y137.899 E86.99442
G1 X118.593 Y137.95 E87.0714
G1 X80.593 Y137.949 E90.6624
G1 X79.766 Y137.896 E90.74071
G1 X79.533 Y137.866 E90.76291
G1 X78.581 Y137.67 E90.85476
G1 X77.849 Y137.415 E90.92801
G1 X77.633 Y137.325 E90.95012
G1 X77 Y137.02 E91.01652
G1 X76.149 Y136.465 E91.11253
G1 X75.966 Y136.324 E91.13437
G1 X75.339 Y135.774 E91.21318
G1 X75.323 Y135.758 E91.21532
G1 X74.767 Y135.123 E91.29508
G1 X74.628 Y134.942 E91.31665
G1 X74.189 Y134.292 E91.39077
G1 X74.176 Y134.27 E91.39318
G1 X73.765 Y133.447 E91.48012
G1 X73.675 Y133.229 E91.5024
G1 X73.393 Y132.387 E91.58632
G1 X73.232 Y131.558 E91.66612
G1 X73.201 Y131.315 E91.68927
G1 X73.149 Y130.496 E91.76682
G1 X73.15 Y92.494 E95.35801
G1 X73.201 Y91.684 E95.43471
G1 X73.23 Y91.454 E95.45662
G1 X73.407 Y90.56 E95.54274
G1 X73.413 Y90.538 E95.54489
G1 X73.685 Y89.748 E95.62385
G1 X73.776 Y89.53 E95.64617
G1 X74.079 Y88.901 E95.71215
G1 X74.628 Y88.058 E95.80722
G1 X74.767 Y87.877 E95.82878
G1 X75.323 Y87.242 E95.90854
G1 X75.339 Y87.226 E95.91068
G1 X75.966 Y86.676 E95.9895
G0 F4500 X76.18 Y86.953
G1 F1800 X76.363 Y86.812 E96.01133
G1 X76.985 Y86.391 E96.08231
G1 X77.007 Y86.378 E96.08472
G1 X77.79 Y85.988 E96.16739
G1 X78.006 Y85.899 E96.18946
G1 X78.677 Y85.667 E96.25656
G1 X79.591 Y85.479 E96.34474
G1 X79.836 Y85.448 E96.36807
G1 X80.605 Y85.4 E96.44089
G1 X118.605 Y85.401 E100.03189
G1 X119.387 Y85.451 E100.10594
G1 X119.62 Y85.481 E100.12814
G1 X120.521 Y85.667 E100.21508
G1 X121.215 Y85.908 E100.2845
G1 X121.431 Y85.998 E100.30661
G1 X122.03 Y86.287 E100.36946
G1 X122.835 Y86.812 E100.46028
G1 X123.018 Y86.953 E100.48212
G1 X123.625 Y87.488 E100.55858
G1 X124.146 Y88.081 E100.63317
G1 X124.287 Y88.264 E100.655
G1 X124.708 Y88.886 E100.72598
G1 X124.721 Y88.908 E100.7284
G1 X125.111 Y89.691 E100.81106
G1 X125.2 Y89.907 E100.83314
G1 X125.432 Y90.578 E100.90023
G1 X125.619 Y91.486 E100.98784
G1 X125.65 Y91.729 E101.01099
G1 X125.699 Y92.504 E101.08437
G1 X125.698 Y130.506 E104.67556
G1 X125.65 Y131.272 E104.74809
G1 X125.621 Y131.502 E104.76999
G1 X125.453 Y132.348 E104.8515
G1 X125.447 Y132.37 E104.85366
G1 X125.19 Y133.117 E104.92831
G1 X125.099 Y133.335 E104.95063
G1 X124.812 Y133.931 E105.01315
G1 X124.293 Y134.729 E105.1031
G1 X124.154 Y134.91 E105.12467
G1 X123.627 Y135.51 E105.20013
G1 X123.611 Y135.526 E105.20227
G1 X123.018 Y136.047 E105.27687
G1 X122.835 Y136.188 E105.2987
G1 X122.03 Y136.713 E105.38952
G1 X121.431 Y137.002 E105.45237
G1 X121.215 Y137.092 E105.47448
G1 X120.521 Y137.333 E105.54391
G1 X119.607 Y137.521 E105.63209
G1 X119.362 Y137.552 E105.65543
G1 X118.593 Y137.6 E105.72824
G1 X80.593 Y137.599 E109.31924
G1 X79.811 Y137.549 E109.39329
G1 X79.578 Y137.519 E109.41549
G1 X78.677 Y137.333 E109.50243
G1 X77.983 Y137.092 E109.57185
G1 X77.767 Y137.002 E109.59397
G1 X77.168 Y136.713 E109.65681
G1 X76.363 Y136.188 E109.74764
G1 X76.18 Y136.047 E109.76947
G1 X75.587 Y135.526 E109.84406
G1 X75.571 Y135.51 E109.8462
G1 X75.044 Y134.91 E109.92167
G1 X74.905 Y134.729 E109.94323
G1 X74.49 Y134.114 E110.01334
G1 X74.477 Y134.092 E110.01576
G1 X74.089 Y133.313 E110.098
G1 X73.999 Y133.095 E110.12029
G1 X73.732 Y132.298 E110.19972
G1 X73.579 Y131.514 E110.2752
G1 X73.548 Y131.271 E110.29835
G1 X73.499 Y130.496 E110.37174
G1 X73.5 Y92.494 E113.96293
G1 X73.548 Y91.728 E114.03545
G1 X73.577 Y91.498 E114.05736
G1 X73.745 Y90.652 E114.13887
G1 X73.751 Y90.63 E114.14102
G1 X74.008 Y89.883 E114.21568
G1 X74.099 Y89.665 E114.238
G1 X74.386 Y89.069 E114.30051
G1 X74.905 Y88.271 E114.39047
G1 X75.044 Y88.09 E114.41204
G1 X75.571 Y87.49 E114.4875
G1 X75.587 Y87.474 E114.48964
G1 X76.18 Y86.953 E114.56423
G0 F4500 X76.393 Y87.23
G1 F1800 X76.576 Y87.089 E114.58607
G1 X77.163 Y86.692 E114.65303
G1 X77.185 Y86.679 E114.65545
G1 X77.923 Y86.311 E114.73338
G1 X78.139 Y86.222 E114.75546
G1 X78.773 Y86.003 E114.81884
G1 X79.635 Y85.827 E114.90198
G1 X79.88 Y85.796 E114.92532
G1 X80.605 Y85.75 E114.99397
G1 X118.605 Y85.751 E118.58497
G1 X119.342 Y85.798 E118.65476
G1 X119.575 Y85.828 E118.67696
G1 X120.425 Y86.003 E118.75897
G1 X121.08 Y86.231 E118.82451
G1 X121.296 Y86.321 E118.84662
G1 X121.862 Y86.594 E118.906
G1 X122.622 Y87.089 E118.99171
G1 X122.805 Y87.23 E119.01355
